X:1
T:Cantus Gloriosus, CMD
T:Cantus Gloriosus, CMD
T:Frank Linwood Sealy, 1892
T:Public Domain Courtesy of the Cyber Hymnal™
C:Frank Linwood Sealy, 1892
Z:Public Domain
Z:Courtesy of the Cyber Hymnal™
%%score ( 1 2 ) ( 3 4 )
L:1/8
Q:1/4=110
M:4/4
K:G
V:1 treble 
V:2 treble 
V:3 bass 
V:4 bass 
V:1
 D2 | D2 [DB]2 [DA]2 [DG]2 | [DG]3 [DF] [DF]2 [DG]2 | [CE]3 [CG] [CG]2 [CA]2 | [B,D]6 [DB]2 | %5
 [DA]2 [Fd]2 [G^c]2 [GB]2 | [DA]3 [DG] [DG]2 [DF]2 | [DE]3 [DE] [^CF]2 [CE]2 | [CA]6 [DA]2 | %9
 [DB]2 D2 [DE]2 [DB]2 | [DB]3 [DA] [DA]2 [DB]2 | [DG]3 G [GA]2 [=FB]2 | [Ec]6 [EB]2 | %13
 [EA]2 [Fe]2 [Gd]2 [DG]2 | [CE]2 [Ec]2 [EB]2 [EA]2 | c6 [GB]2 | A6 [FB]2 | G6 |] %18
V:2
 D2 | D2 x6 | x8 | x8 | x8 | x8 | x8 | x8 | x8 | x2 D2 x4 | x8 | x3 G x4 | x8 | x8 | x8 | %15
 (E2 F2 G2) x2 | (G2 E2 F2) x2 | G6 |] %18
V:3
 [G,B,]2 | [G,B,]2 [G,B,]2 [G,C]2 [G,B,]2 | [A,C]3 [D,C] [D,C]2 [G,,B,]2 | %3
 [C,C]3 [E,G,] [E,G,]2 [D,F,]2 | G,6 G,2 | [F,A,]2 [D,A,]2 [E,E]2 [E,D]2 | %6
 [F,=C]3 [G,B,] [G,B,]2 [G,B,]2 | [G,B,]3 [G,B,] A,2 [A,,G,]2 | (G,2 E,2 F,2) [D,C]2 | %9
 [G,B,]2 [G,B,]2 [G,B,]2 [G,B,]2 | [F,C]3 [F,C] [F,C]2 [F,C]2 | [G,B,]3 [G,B,] [G,C]2 [G,D]2 | %12
 [C,C]6 [C,D]2 | [C,C]2 [C,C]2 [C,D]2 [B,,B,]2 | [C,G,]2 [C,G,]2 [C,^G,]2 [C,A,]2 | %15
 (E2 C2 [B,,D]2) [B,,^D]2 | [C,E]4 [D,D]2 [D,C]2 | [G,,B,]6 |] %18
V:4
 x2 | x8 | x8 | x8 | G,6 G,2 | x8 | x8 | x4 A,2 x2 | D,6 x2 | x8 | x8 | x8 | x8 | x8 | x8 | %15
 A,,4 x4 | x8 | x6 |] %18

